symbols/web/monitor/materialsymbolsoutlined/monitor_wght200_40px.svg

<svg xmlns="http://www.w3.org/2000/svg" height="40" width="40"><path d="M13.375 33.333v-2.166l2.833-2.834H7.417q-1 0-1.709-.708Q5 26.917 5 25.917V9.083q0-1 .708-1.708.709-.708 1.709-.708h25.166q1 0 1.709.708.708.708.708 1.708v16.834q0 1-.708 1.708-.709.708-1.709.708h-8.791l2.833 2.834v2.166Zm-5.958-6.416h25.166q.375 0 .688-.313.312-.312.312-.687V9.083q0-.375-.312-.687-.313-.313-.688-.313H7.417q-.375 0-.688.313-.312.312-.312.687v16.834q0 .375.312.687.313.313.688.313Zm-1 0V8.083v18.834Z"/></svg>

<svg xmlns="http://www.w3.org/2000/svg" height="40" width="40"><path d="M13.375 33.333V31.167L16.208 28.333H7.417Q6.417 28.333 5.708 27.625Q5 26.917 5 25.917V9.083Q5 8.083 5.708 7.375Q6.417 6.667 7.417 6.667H32.583Q33.583 6.667 34.292 7.375Q35 8.083 35 9.083V25.917Q35 26.917 34.292 27.625Q33.583 28.333 32.583 28.333H23.792L26.625 31.167V33.333ZM7.417 26.917H32.583Q32.958 26.917 33.271 26.604Q33.583 26.292 33.583 25.917V9.083Q33.583 8.708 33.271 8.396Q32.958 8.083 32.583 8.083H7.417Q7.042 8.083 6.729 8.396Q6.417 8.708 6.417 9.083V25.917Q6.417 26.292 6.729 26.604Q7.042 26.917 7.417 26.917ZM6.417 26.917Q6.417 26.917 6.417 26.625Q6.417 26.333 6.417 25.917V9.083Q6.417 8.667 6.417 8.375Q6.417 8.083 6.417 8.083Q6.417 8.083 6.417 8.375Q6.417 8.667 6.417 9.083V25.917Q6.417 26.333 6.417 26.625Q6.417 26.917 6.417 26.917Z"/></svg>
